X: 8026
T: Connemara, The
R: mazurka
M: 3/4
K: Dmajor
|:B/|A>F F2 d>A|B<d A>F G>B|A>F F2 d>A|B>d A<F D3/2:|
|:g/|f>d d>c d>=f|e>=c c>B c>e|1 d>B B>^A B>d|c>A A>^G A3/2:|
[2 d>B- B>^A (3Bcd|(3Bcd e<c d3/2||

